**kern	**kern	**dynam
*part1	*part1	*part1
*staff2	*staff1	*
*I"Piano	*	*
*clefF4	*clefG2	*
*k[b-e-a-]	*k[b-e-a-]	*
=1	=1	=1
4.r	4.r	.
=	=	=
*^	*	*
4.B-	(8GL	(8e-L 8b-X	.
.	8F	8a- 8dd	.
.	8E-J)	8gJ) 8ee-	.
*v	*v	*	*
=	=	=
8r	8r	.
8r	8r	.
8AA- 8A-	8c 8e- 8cc	.
=	=	=
*	*^	*
8r	8r	8r	.
8GL	8b-'L	4e-	.
8E-J	8g'J	.	.
=	=	=	=
4A-	(8fL	4c	.
.	8e-)	.	.
8F	8fJ	8d	.
=	=	=	=
4E- 4B-	4g	4e-	.
8E- 8G	8g	8e-	p
=	=	=	=
4C 4G	(8ccL	4e-	.
.	8g)	.	.
8C 8G	8ccJ	8e-	.
=	=	=	=
4GG 4G	4b-	4d	.
8G 8B-	8g	8d	.
=	=	=	=
4C 4G	(8ccL	4e-	.
.	8g)	.	.
8C 8G	8ccJ	8e-	.
*	*v	*v	*
=	=	=
*-	*-	*-
!!!system-decoration: {(s1,s2)}
